icons/chess.svg

<svg xmlns="http://www.w3.org/2000/svg" viewBox="0 0 24 24"><path fill="#cfd8dc" d="M19 22H5v-2h14v2m-2-12c-1.42 0-2.74.77-3.45 2H13V7h3V5h-3V2h-2v3H8v2h3v5h-.55C9.35 10.09 6.9 9.43 5 10.54A4.013 4.013 0 0 0 3.5 16c.74 1.24 2.07 2 3.5 2h10a4 4 0 0 0 4-4 4 4 0 0 0-4-4z"/></svg>

<svg version="1.1" xmlns="http://www.w3.org/2000/svg" viewBox="0 0 24 24"><path fill="#c5b18d" d="M19,22H5V20H19V22M17,10C15.58,10 14.26,10.77 13.55,12H13V7H16V5H13V2H11V5H8V7H11V12H10.45C9.35,10.09 6.9,9.43 5,10.54C3.07,11.64 2.42,14.09 3.5,16C4.24,17.24 5.57,18 7,18H17A4,4 0 0,0 21,14A4,4 0 0,0 17,10Z"/></svg>
